common/svg/settings-icon.svg

<svg fill="none" height="22" viewBox="0 0 22 22" width="22" xmlns="http://www.w3.org/2000/svg"><path clip-rule="evenodd" d="m9.0999 2.20051c.03866-.21262.22384-.36717.43995-.36717h2.92025c.2161 0 .4013.15455.44.36717l.4175 2.29624c.0588.32359.4351.47507.7017.28251l1.8664-1.34795c.1779-.1285.4228-.10888.578.04631l2.0587 2.05867c.1552.15519.1748.40007.0463.57799l-1.3479 1.8664c-.1926.26662-.0411.64291.2825.70174l2.2962.4175c.2126.03866.3672.22384.3672.43994v2.92034c0 .2161-.1546.4012-.3672.4399l-2.2962.4175c-.3236.0588-.4751.4351-.2825.7017l1.3479 1.8664c.1285.178.1089.4228-.0463.578l-2.0587 2.0587c-.1552.1552-.4001.1748-.578.0463l-1.8664-1.3479c-.2666-.1926-.6429-.0411-.7017.2825l-.4175 2.2962c-.0387.2126-.2239.3672-.44.3672h-2.92025c-.21611 0-.40129-.1546-.43995-.3672l-.41749-2.2962c-.05884-.3236-.43512-.4751-.70175-.2825l-1.86639 1.3479c-.17793.1285-.4228.1089-.57799-.0463l-2.05868-2.0587c-.15519-.1552-.17481-.4-.04631-.578l1.34795-1.8664c.19257-.2666.04108-.6429-.28251-.7017l-2.29624-.4175c-.21261-.0387-.36716-.2238-.36716-.4399v-2.92034c0-.2161.15455-.40128.36716-.43994l2.29624-.4175c.32359-.05883.47508-.43512.28251-.70174l-1.34795-1.8664c-.1285-.17792-.10888-.4228.04631-.57799l2.05868-2.05867c.15519-.15519.40007-.17481.57799-.04631l1.86639 1.34795c.26663.19256.64291.04108.70175-.28251zm1.9001 11.70599c1.6052 0 2.9065-1.3013 2.9065-2.9065 0-1.60521-1.3013-2.90649-2.9065-2.90649-1.60522 0-2.90651 1.30128-2.90651 2.90649 0 1.6052 1.30129 2.9065 2.90651 2.9065z" fill-rule="evenodd" stroke="#000" stroke-width="1.71875"/></svg>

<svg width="22" height="22" viewBox="0 0 22 22" fill="none" xmlns="http://www.w3.org/2000/svg">
<path fill-rule="evenodd" clip-rule="evenodd" d="M9.0999 2.20051C9.13856 1.98789 9.32374 1.83334 9.53985 1.83334H12.4601C12.6762 1.83334 12.8614 1.98789 12.9001 2.20051L13.3176 4.49675C13.3764 4.82034 13.7527 4.97182 14.0193 4.77926L15.8857 3.43131C16.0636 3.30281 16.3085 3.32243 16.4637 3.47762L18.5224 5.53629C18.6776 5.69148 18.6972 5.93636 18.5687 6.11428L17.2208 7.98068C17.0282 8.2473 17.1797 8.62359 17.5033 8.68242L19.7995 9.09992C20.0121 9.13858 20.1667 9.32376 20.1667 9.53986V12.4602C20.1667 12.6763 20.0121 12.8614 19.7995 12.9001L17.5033 13.3176C17.1797 13.3764 17.0282 13.7527 17.2208 14.0193L18.5687 15.8857C18.6972 16.0637 18.6776 16.3085 18.5224 16.4637L16.4637 18.5224C16.3085 18.6776 16.0636 18.6972 15.8857 18.5687L14.0193 17.2208C13.7527 17.0282 13.3764 17.1797 13.3176 17.5033L12.9001 19.7995C12.8614 20.0121 12.6762 20.1667 12.4601 20.1667H9.53985C9.32374 20.1667 9.13856 20.0121 9.0999 19.7995L8.68241 17.5033C8.62357 17.1797 8.24729 17.0282 7.98066 17.2208L6.11427 18.5687C5.93634 18.6972 5.69147 18.6776 5.53628 18.5224L3.4776 16.4637C3.32241 16.3085 3.30279 16.0637 3.43129 15.8857L4.77924 14.0193C4.97181 13.7527 4.82032 13.3764 4.49673 13.3176L2.20049 12.9001C1.98788 12.8614 1.83333 12.6763 1.83333 12.4602V9.53986C1.83333 9.32376 1.98788 9.13858 2.20049 9.09992L4.49673 8.68242C4.82032 8.62359 4.97181 8.2473 4.77924 7.98068L3.43129 6.11428C3.30279 5.93636 3.32241 5.69148 3.4776 5.53629L5.53628 3.47762C5.69147 3.32243 5.93635 3.30281 6.11427 3.43131L7.98066 4.77926C8.24729 4.97182 8.62357 4.82034 8.68241 4.49675L9.0999 2.20051ZM11 13.9065C12.6052 13.9065 13.9065 12.6052 13.9065 11C13.9065 9.39479 12.6052 8.09351 11 8.09351C9.39478 8.09351 8.09349 9.39479 8.09349 11C8.09349 12.6052 9.39478 13.9065 11 13.9065Z" stroke="black" stroke-width="1.71875"/>
</svg>
